!!!COM: Josephine Lang
!!!CNT: Deutsch
!!!TXO: Deutsch
!!!OTL: "Abschied"
!!!LYR: C. Reinhold
!!!OPS: Op. 13
!!!ONM: No. 1
!!!ENC: Alyona Dzerbina, phrasing added by LVH
!!!YOR: Josephine Lang: Selected Songs
!!!YOR: Da Capo Press, 1982
!!!ODT: 1843/
!!NB: Vocal melody only encoded.
**kern
*staff1
*clefG2
*k[b-]
*M2/4
*MM[Andante]
8r
=1
2r
=2
2r
=3
2r
=4
4r
8r
{8cc
=5
4.g
8a
=6
4.b-
8a
=7
8dd
8cc
8.b-
16g
=8
4a}
8r
{8f
=9
(4f
8b-)
8f
=10
(4f
8dd)
8r
=11
8b-
8a
8g
8f
=12
(4a
8g)}
8r
=13
8r
{8g
8a
8cc
=14
4g
8r
8c
=15
8.a
16g
8a
8bn
=16
4cc}
8r
{8cc
=17
(4cc
8dd)
8cc
=18
(4cc
8dd)
16r
16cc
=19
8cc
8b-
8a
8g
=20
(4b-
16a)}
16r
{8cc
=21
4ff
4ee-
=22
4dd
8r
8dd
=23
8dd
8cc
8b-
8a
=24
4g}
8r
{8g
=25
4b-
4a
=26
(4g
16f)
16r
8f
=27
8b-
8b-
8a
8g
=28
(4f
8e
8f
=29
4a
8.g
16f)
=30
4f}
4r
=31
2r
=32
2r
=33
2r
=34
2r
==
*-
